Images/private.svg

<svg fill="none" height="69" viewBox="0 0 53 69" width="53" xmlns="http://www.w3.org/2000/svg"><path d="m48.6448 47.5862c-6.2743-5.2959-12.9916-8.9032-14.3203-9.5172-.6643-.3838-1.1072-1.0746-1.1072-1.9188v-10.2848c0-.5373.2952-1.0745.6643-1.3815.8858-.614 1.4025-1.6118 1.4025-2.6096v-10.6685c0-4.37488-3.4693-7.98222-7.6769-7.98222h-2.2144c-4.2076 0-7.6769 3.60734-7.6769 7.98222v10.6685c0 1.0745.5167 2.0723 1.4025 2.6096.4429.307.6643.8442.6643 1.3815v10.2848c0 .7675-.4429 1.535-1.1072 1.9188-1.3287.6907-8.046 4.2213-14.32035 9.5172-.81198.6908-1.25487 1.6885-1.25487 2.7631v7.2914c0 .921-.73816 1.6118-1.55014 1.6118-.811978 0-1.55014-.7675-1.55014-1.6118v-7.2914c0-2.0723.885793-3.9911 2.36212-5.2192 5.83147-4.9888 12.03198-8.4427 14.32038-9.5939v-8.8265c-1.3287-1.2281-2.0669-2.9166-2.0669-4.7586v-10.7453c0-6.14017 4.798-11.2058 10.7772-11.2058h2.2144c5.9791 0 10.7772 5.06563 10.7772 11.2058v10.6685c0 1.8421-.7382 3.6073-2.0669 4.7586v8.7497c2.2145 1.1513 8.4889 4.6819 14.3204 9.594 1.4763 1.3048 2.3621 3.2236 2.3621 5.2192v7.2914c0 .921-.7382 1.6118-1.5501 1.6118-.812 0-1.5502-.7675-1.5502-1.6118v-7.2914c0-.921-.4429-1.9188-1.2549-2.6096zm-15.649 5.3726v2.3794h1.3287c.8858 0 1.5501.7675 1.5501 1.6117v10.4383c0 .921-.7381 1.6118-1.5501 1.6118h-15.649c-.8858 0-1.5502-.7675-1.5502-1.6118v-10.3615c0-.921.7382-1.6118 1.5502-1.6118h1.3287v-2.4561c0-3.7608 2.8788-6.7541 6.4958-6.7541s6.4958 3.0701 6.4958 6.7541zm-9.8913 2.3794h6.7172v-2.3794c0-1.9188-1.4763-3.5305-3.3955-3.5305s-3.3956 1.535-3.3956 3.5305v2.3794zm9.5961 3.3003h-12.4012v7.2147h12.475v-7.2147z" fill="#b30000"/></svg>

<svg width="53" height="69" viewBox="0 0 53 69" fill="none" xmlns="http://www.w3.org/2000/svg">
<path d="M48.6448 47.5862C42.3705 42.2903 35.6532 38.683 34.3245 38.069C33.6602 37.6852 33.2173 36.9944 33.2173 36.1502V25.8654C33.2173 25.3281 33.5125 24.7909 33.8816 24.4839C34.7674 23.8699 35.2841 22.8721 35.2841 21.8743V11.2058C35.2841 6.83092 31.8148 3.22358 27.6072 3.22358H25.3928C21.1852 3.22358 17.7159 6.83092 17.7159 11.2058V21.8743C17.7159 22.9488 18.2326 23.9466 19.1184 24.4839C19.5613 24.7909 19.7827 25.3281 19.7827 25.8654V36.1502C19.7827 36.9177 19.3398 37.6852 18.6755 38.069C17.3468 38.7597 10.6295 42.2903 4.35515 47.5862C3.54317 48.277 3.10028 49.2747 3.10028 50.3493V57.6407C3.10028 58.5617 2.36212 59.2525 1.55014 59.2525C0.738162 59.2525 0 58.485 0 57.6407V50.3493C0 48.277 0.885793 46.3582 2.36212 45.1301C8.19359 40.1413 14.3941 36.6874 16.6825 35.5362V26.7097C15.3538 25.4816 14.6156 23.7931 14.6156 21.9511V11.2058C14.6156 5.06563 19.4136 0 25.3928 0H27.6072C33.5863 0 38.3844 5.06563 38.3844 11.2058V21.8743C38.3844 23.7164 37.6462 25.4816 36.3175 26.6329V35.3826C38.532 36.5339 44.8064 40.0645 50.6379 44.9766C52.1142 46.2814 53 48.2002 53 50.1958V57.4872C53 58.4082 52.2618 59.099 51.4499 59.099C50.6379 59.099 49.8997 58.3315 49.8997 57.4872V50.1958C49.8997 49.2748 49.4568 48.277 48.6448 47.5862ZM32.9958 52.9588V55.3382H34.3245C35.2103 55.3382 35.8746 56.1057 35.8746 56.9499V67.3882C35.8746 68.3092 35.1365 69 34.3245 69H18.6755C17.7897 69 17.1253 68.2325 17.1253 67.3882V57.0267C17.1253 56.1057 17.8635 55.4149 18.6755 55.4149H20.0042V52.9588C20.0042 49.198 22.883 46.2047 26.5 46.2047C30.117 46.2047 32.9958 49.2748 32.9958 52.9588ZM23.1045 55.3382H29.8217V52.9588C29.8217 51.04 28.3454 49.4283 26.4262 49.4283C24.507 49.4283 23.0306 50.9633 23.0306 52.9588V55.3382H23.1045ZM32.7006 58.6385H20.2994V65.8532H32.7744V58.6385H32.7006Z" fill="#FF0000"/>
</svg>
